X:1
T:Title
%%score { ( 1 3 ) | 2 }
L:1/8
M:4/4
K:Eb
V:1 treble nm="Grand Piano"
V:3 treble 
V:2 bass 
V:1
 z4 z2[Q:1/4=94] [EG][FA] | [GB]2 [GB]2 [Ac][GB]EF | G2 G2 AG[GB][GB] | c2 e2 feec | %4
 [GB]6 [EG][GB] | [GB]2 [FA][EG] [FA][GB][Fd][DAc] | [EGB][Ge][Ae][Ac] [GB]2 [EG][Ec] | %7
 [DB][A,DF][A,DF][CDA] [B,EG]2 [A,DF]2 |[M:3/4] [G,E]6 |[M:1/4] [EGB][Be] |[M:4/4] z d3- d z z2 | %11
 z B3- B2 z2 | [DB][DA][FA][GB] [Bd][Bd][FA][DA] | [EG]6 [EGB][Be] | %14
 [Ae]d-[Ad-][Ad-] [Ad-][Ad][FA][Fd] | z B3- B2 z2 | ccAc B2 [Ad]2 |[M:3/4] [Ge]6 |] %18
V:2
 z4 z2 [E,B,][E,B,] | [E,E]2 [E,E]2 [E,E][E,E][E,G,][E,A,D] | %2
 [E,B,E]2 [E,B,E]2 [E,CE][E,B,E][E,E][E,E] | [A,EA]2 [A,CA]2 [A,CA][A,CA][A,CA][A,EA] | %4
 [E,E]6 [E,B,][E,B,] | [B,,B,]2 [B,,B,][B,,B,] [B,,B,][B,,B,][B,,B,]B,, | %6
 E,[E,B,][E,C][E,E] [E,E]2 [E,B,][E,G,] | [B,,F,]B,,B,,B,, B,,2 B,,2 |[M:3/4] E,6 | %9
[M:1/4] E,[G,B,] |[M:4/4] [F,B,][F,B,][B,,B,][B,,B,] [F,B,][F,B,][B,,B,][B,,A,] | %11
 [E,G,]E,B,,B,, [E,E][E,E][E,B,E][E,G,E] | %12
 [B,,F,][B,,F,][B,,B,][B,,B,] [B,,B,][B,,B,][B,,B,][B,,B,] | E,B,,E,G, B,2 E,[G,B,] | %14
 [F,B,][F,B,][B,,B,][B,,B,] [F,B,][F,B,][B,,B,][B,,A,] | [E,G,]E,B,,B,, [E,E][E,E][E,E][E,E] | %16
 [A,EA][A,EA][A,CE][A,EA] [B,EG]2[K:bass] [B,,B,]2 |[M:3/4] [E,B,]6 |] %18
V:3
 x8 | x8 | x8 | x8 | x8 | x8 | x8 | x8 |[M:3/4] x6 |[M:1/4] x2 |[M:4/4] [Ae]AAA AA[FA][Fd] | %11
 [Ec][B,G][EG][EG] GGGc | x8 | B,4 z4 | z A z2 z4 | [Ec][B,G][EG][EG] GG[GB][GB] | x8 | %17
[M:3/4] x6 |] %18

